X:864
T:Anglais efter Jöns Persson
T:(SvL Skåne nr. 82)
R:Anglais
Z:Patrik Månsson, 2008-12-31
O:Roalöv, Skåne
S:efter Jöns Persson
S:Svenska Låtar Skåne nr 82
B:Svenska Låtar Skåne
D:Inspelad i G-dur av Tom Thomat som låt nr 2 på Göingemusickanternas skiva "Det dansar en Göing 2" (2007), se nedan
M:C
L:1/8
K:D
|: f3 e dcdB | ABAG F2 D2 | a3 f gabg | (ef)ec d4 :|
|: afdf afdf | gece dAFA | afdf afdf | (ge)ce d4 :|
(:musicend:)

--

(:music:)
